X:1
T:fikrimin
T:fikrimin ince gülü 
%%score { 1 | 2 }
L:1/8
M:3/4
K:F
V:1 treble nm="Piano" snm="Pno."
V:2 bass 
V:1
 ag fe d2 | c2 d2 e2 | cd cB BA | A6 :| g2 a2 Pb2 | a6 | g2 a2 Pb2 | a6 |: ag fe d2 | c2 d2 e2 | %10
 cd cB BA | A6 :: g4 a2 | a2 a4 | g2 a2 Pba | a6 | g2 a2 b2 | b2 a2 g2 | ga gf fe | f6 :: e2 g4 | %21
 fg e4 | d2 c2 d2 | ed cB A2 | B4 B2 | B2 A2 G2 | cd cB BA | A6 :| %28
V:2
 D,2 [F,A,]2 [F,A,]2 | C,2 [E,G,]2 [E,G,]2 | B,,2 [D,F,]2 [D,F,]2 | A,,2 [C,E,]2 [C,E,]2 :| %4
 [G,,G,]B, DF DB, | [A,,A,]C EA EC | [G,,G,]B, DF D2 | [A,,A,]C EA EC |: D,F, A,D A,F, | %9
 C,E, G,C G,E, | [G,B,D]4 [B,DF]2 | A,2 [CE]2 [CE]2 :: G,2 [B,D]2 [B,D]2 | A,2 [CE]2 [CE]2 | %14
 G,2 [B,D]2 [B,D]2 | A,2 [CE]2 [CE]2 | G,2 [B,D]2 [B,D]2 | B,2 [DF]2 [DF]2 | G,2 [B,D]2 [B,D]2 | %19
 D,2 [F,A,]2 [F,A,]2 :: D,2 [F,A,]2 [F,A,]2 | D,2 [F,A,]2 [F,A,]2 | D,2 [F,A,]2 [F,A,]2 | %23
 C,2 [E,G,]2 [E,G,]2 | B,,2 [D,F,]2 [D,F,]2 | B,,2 [D,F,]2 [D,F,]2 | G,,2 [B,,D,]2 [B,,D,]2 | %27
 A,,2 [C,E,]2 [C,E,]2 :| %28

